X: 410
T: Guanggurhan huijia hao nanhuo
%%abc-version 2.0
%%abcx-abcm2ps-target-version 5.9.1 (29 Sep 2008)
%%abc-creator hum2abc beta
%%abcx-conversion-date 2013/10/02 07:52:30
%%abc-edited-by Helmut Schaffrath
%%humdrum-veritas 1881815968
%%humdrum-veritas-data 1316570812
%%continueall 1
%%barnumbers 0
L: 1/8
M: 2/4
K: Bb
d'> c' d' f' [I:setbarnb 1]| 
gb2g/ f/ | 
d c d f' | 
c4 | 
d'> c' d' f' | 
gb2g/ f/ | 
d f g d' | 
f4 |]  



